src/assets/graphics/icons/folder.svg

<svg xmlns="http://www.w3.org/2000/svg" viewBox="0 0 24 24" width="512" height="512"><path d="M19 3h-6.528a1.019 1.019 0 0 1-.447-.1L8.869 1.316A3.014 3.014 0 0 0 7.528 1H5a5.006 5.006 0 0 0-5 5v12a5.006 5.006 0 0 0 5 5h14a5.006 5.006 0 0 0 5-5V8a5.006 5.006 0 0 0-5-5zM5 3h2.528a1.019 1.019 0 0 1 .447.1l3.156 1.579A3.014 3.014 0 0 0 12.472 5H19a3 3 0 0 1 2.779 1.882L2 6.994V6a3 3 0 0 1 3-3zm14 18H5a3 3 0 0 1-3-3V8.994l20-.113V18a3 3 0 0 1-3 3z"/></svg>

<?xml version="1.0" encoding="UTF-8"?>
<svg xmlns="http://www.w3.org/2000/svg" id="Outline" viewBox="0 0 24 24" width="512" height="512"><path d="M19,3H12.472a1.019,1.019,0,0,1-.447-.1L8.869,1.316A3.014,3.014,0,0,0,7.528,1H5A5.006,5.006,0,0,0,0,6V18a5.006,5.006,0,0,0,5,5H19a5.006,5.006,0,0,0,5-5V8A5.006,5.006,0,0,0,19,3ZM5,3H7.528a1.019,1.019,0,0,1,.447.1l3.156,1.579A3.014,3.014,0,0,0,12.472,5H19a3,3,0,0,1,2.779,1.882L2,6.994V6A3,3,0,0,1,5,3ZM19,21H5a3,3,0,0,1-3-3V8.994l20-.113V18A3,3,0,0,1,19,21Z"/></svg>
